!!!OTL: Shiliting
!!!ARE: Asia, China,ˇNingxia, Yinchuan
!! I, 198
!!!SCT: C1431
!!!YEM: Copyright 1995, estate of Helmut Schaffrath.
**kern
*ICvox
*Ivox
*M2/4
*k[f#]
*G:
{8dd
8a
4dd
=1
8dd
4cc#
8dd
=2
8a
8g
8f#
8e
=3
2d}
=4
{8a
8g
4a
=5
4c#
4d
=6
8g
8e
8d
8B
=7
2A}
=8
{8d
8d
4g
=9
8a
4a
8dd
=10
8a
8g
8f#
8e
=11
2d}
=12
{8dd
8a
4dd
=13
8.dd
16gg
8cc#
8a
=14
4.g
8a
=15
8e
8d
8c
8B
=16
2A}
==
!!!AGN: Xiaodiao. NannÅ liqing
!!!ONB: ESAC (Essen Associative Code) Database: HUANG
!!!AMT: simple duple
!!!AIN: vox
!!!EED: Helmut Schaffrath
!!!EEV: 1.0
*-
!!!OTL: Xundian shange
!!!ARE: Asia, China,ˇYunnan
!! II, 84
!!!SCT: C1494
!!!YEM: Copyright 1995, estate of Helmut Schaffrath.
**kern
*ICvox
*Ivox
!! Mixed meters:  2/4; 3/4; 4/4
*M2/4
*k[f#]
*G:
{8d
16d
16d
8d
16e
16g
=1
16a
16b
4dd
8ee
=2
8cc
16dd
16ee
8dd
8dd}
=3
*M3/4
{16.a
32b
16dd
16ee
8b
16b
16a
16g
16a
8b
=4
*M2/4
8a
32a
32g
32a
32g
16e
16d
8e
=5
2d}
=6
{8d
8d
16d
16e
16g
16a
=7
*M4/4
8dd
8dd
4a
16a
16b
4dd}
{8ee
=8
*M3/4
8dd
16dd
16dd
8b
16b
16a
16g
16a
8b
=9
*M2/4
8a
16a
16g
16e
16d
8e
=10
2d}
==
!!!AGN: Shange
!!!AMT: irregular
!!!AIN: vox
!!!EED: Helmut Schaffrath
!!!EEV: 1.0
*-
